build/images/paw-big.svg

<svg width="456" height="425" fill="none" xmlns="http://www.w3.org/2000/svg"><path d="M140.212 132.542c37.738 46.255-1.524 123.914-53.987 103.775-22.627-8.685-35.692-33.181-36.079-58.235-.891-57.864 57.669-85.26 90.066-45.54zm45.833 29.076c-58.031-22.276-37.648-127.31 23.692-122.318 27.946 2.276 49.724 30.914 46.497 66.742-3.606 40.162-37.565 68.1-70.189 55.576z" fill="#FAC663" fill-opacity=".15"/><path d="M133.759 342.439c8.912.87 23.765 4.928 38.816 10.468 15.915 5.843 32.049 13.336 41.632 20.413 25.864 19.166 72.739 14.811 79.624-28.963 6.361-40.469-23.186-49.366-16.374-87.418 6.905-38.448-13.06-65.947-39.437-74.522-24.413-7.933-54.318.353-73.441 31.202-20.369 32.875-48.213 19.719-70.55 54.041-24.217 37.158 7.827 71.687 39.73 74.779zm154.418-141.612c-16.415-6.301-26.859-21.229-29.102-38.8-6.663-52.248 54.598-97.52 93.334-67.92 49.002 37.417-6.233 128.984-64.232 106.72z" fill="#FAC663" fill-opacity=".15"/><path d="M288.959 277.189c-1.164-52.66 64.341-91.294 99.809-57.612 42.724 40.57-14.562 122.825-70.43 101.38-17.93-6.883-28.937-23.749-29.379-43.768z" fill="#FAC663" fill-opacity=".15"/></svg>

<svg width="456" height="425" viewBox="0 0 456 425" fill="none" xmlns="http://www.w3.org/2000/svg">
<path d="M140.212 132.542C177.95 178.797 138.688 256.456 86.225 236.317C63.5979 227.632 50.5333 203.136 50.1463 178.082C49.255 120.218 107.815 92.8216 140.212 132.542Z" fill="#FAC663" fill-opacity="0.15"/>
<path d="M186.045 161.618C128.014 139.342 148.397 34.308 209.737 39.2998C237.683 41.5764 259.461 70.2137 256.234 106.042C252.628 146.204 218.669 174.142 186.045 161.618Z" fill="#FAC663" fill-opacity="0.15"/>
<path d="M133.759 342.439C142.671 343.309 157.524 347.367 172.575 352.907C188.49 358.75 204.624 366.243 214.207 373.32C240.071 392.486 286.946 388.131 293.831 344.357C300.192 303.888 270.645 294.991 277.457 256.939C284.362 218.491 264.397 190.992 238.02 182.417C213.607 174.484 183.702 182.77 164.579 213.619C144.21 246.494 116.366 233.338 94.0299 267.66C69.812 304.818 101.856 339.347 133.759 342.439Z" fill="#FAC663" fill-opacity="0.15"/>
<path d="M288.177 200.827C271.762 194.526 261.318 179.598 259.075 162.027C252.412 109.779 313.673 64.5064 352.409 94.1075C401.411 131.524 346.176 223.091 288.177 200.827Z" fill="#FAC663" fill-opacity="0.15"/>
<path d="M288.959 277.189C287.795 224.529 353.3 185.895 388.768 219.577C431.492 260.147 374.206 342.402 318.338 320.957C300.408 314.074 289.401 297.208 288.959 277.189Z" fill="#FAC663" fill-opacity="0.15"/>
</svg>
